X:90
T:Trip to Athlone, The
R:jig
E:10
M:6/8
I:speed 350
K:D
B|ABA ~D3|d=cA AGE|ABA ABc|dAB cde|\
ABA ~D3|d=cA AGE|GFG Ade|fdc d2:|*
e|fed edc|AdB cde|fed edc|ABc def|\
~g3 age|ed=c AGE|GFG Ade|fdc d2:|**
